X:1
T:Why sit I here - Morley
T:#
%%score { 1 | 2 } 3 4
L:1/8
Q:1/4=112
M:4/4
K:F
V:1 treble nm="Soprano I" snm="S"
V:2 treble 
V:3 treble nm="Alto" snm="A"
V:4 treble nm="Tenor" snm="T"
V:1
 G4 G"^Why sit I here,  alas,  complaining?"ABc | d8 | z2 G2 (B3 c) | %3
w: Why sit I here, a-|las,|com- plain\- *|
 d2 g2 f2"^Thomas Morley\n(1557-1603)" e2 ||[M:4/4] defe d2 c2 | (B2 A2) G2 de | fd (g4 ^f2) | %7
w: ing? Why sit, why|sit I here, a- las, com-|plain\- * ing, sit I|here com- plain\- *|
 g4 z2 g2 | ^f2 g2 d2 Gg | ^f2 g2 d2 Gg | f2 g2 _e4 || d2 d4 c2- | c2 (B2 A4) | =B8 | d8 | _e4 e4 | %16
w: ing? With|sobs and groan- ings, with|sobs and groan- ings, with|sobs and groan-|ings, my dis\-|* dain\- *|ing.|O,|this con-|
 d8- | d8 | d8 | z8 | z4 z2 d2 | f8- | f4 _e4 | d8- | d8 | d8 | z8 | z2 g2 f2 e2 | (dcBA) G2 g2 | %29
w: tent\-||eth,||whom|grief|* tor-|ment\-||eth.||Ah, cease this|weep\- * * * ing, this|
 f8 | f2 de f4 | z2 fe d3 d | c2 B2 A2 (G2- | GA) B4 B2 | A8 | F8 | z4 z2 d2 | gfgf gf_ed | %38
w: weep-|ing, fool a- las,|fool a- las, she|does but this to|* * prove, to|prove|thee:|a-|way, a- way, a- way, a- way, a-|
 c2 d2 c4 | d2 de f4- | f4 _e4 | d8 | d8 | D2 d4 c2 | d2 =B2 c4 | G2 (G4 ^F2) | G2 d2 g3 g | %47
w: way false com-|fort, no, thou canst|* not|move|me,|thou canst, thou|canst not move|me, move *|me thou canst, thou|
 f2 d2 _e4 | d4 z2 f2- | f2 _e2 d3 d | c2 B2 _e2 d2 | c2 B2 c4 | d8 | z2 g4 f2 | _e3 e d3 d | %55
w: canst not move|me. You|* that saw too|much mine eyes, shall|dear- ly buy|it:|you that|saw too much, too|
 c3 c =B2 B2 | (c2 G2) _A4 | G8 | G2 G2 A2 F2 | F2 B2 A2 d2 | c2 f3 _e (d2 | c2) (B4 A2) | %62
w: much mine eyes, shall|dear\- * ly|buy|it: that made my|heart, my heart be-|lieve I did e\-|* spy *|
 B2 B4 B2 |[M:3/4] A3 A d2 | c3 c G2 | A4 =B2 | !courtesy!_B3 B A2 |[M:3/4] G4 c4 | B4 G4 | %69
w: it. Hence false|com- fort, in|vain thou dost|ease me,|com- fort in|vain, thou|seekst to|
[M:4/4] G8 | G8 | z8 | z2 g2 _e3 f | g4 c2 G2 | B3 c d2 B2 | A2 G2 A4 | =B4 z2 d2 | B3 c d4 | %78
w: ease|me;||a- way I|say then, a-|way I say, thou|canst not please|me, a-|way I say|
 G2 g4 d2 | _e4 d2 d2 | f3 f f2 gf | e2 d4 ^c2 | d2 A2 B3 B | A2 G2 A4 | =B4 z2 d2 | B3 (c dcBA | %86
w: then, O thou|canst not, thou|canst not please, no, thou|canst not please|me, thou canst not|please, not please|me, thou|canst not * * * *|
 G2) (c4 =B2) | c4 z2 g2 | _e3 f g2 g2 | c3 d _e2 f2 | g3 f _e2 d2 | c2 =B2 c4 | =B16 |] %93
w: * please *|me, a-|way I say, a-|way I say, a-|way I say, thou|canst not please|me.|
V:2
 z8 | G4 GABc | d4 z2 G2 | (B3 c) d2 g2 ||[M:4/4] fede f2 e2 | d2 c2 BABG | A2 G2 A4 | %7
w: |Why sit I here, a-|las, com-|plain\- * ing? Why|sit I here, a- lone a-|las, why sit I here, a-|lone com- plain-|
 G2 B2 A2 B2 | A2 GB A2 B2 | A2 GB A2 B2 | A2 =B2 c4 || B2 B4 (A2- | AG) (G4 ^F2) | G8 | =B8 | %15
w: ing? With sobs and|groan- ings, with sobs and|groan- ings, with sobs and|groan- ings, my|un- just dis\-|* * dain- *|ing.|O,|
 c4 c4- | c4 B2 (AG) | A8 | =B4 z4 | z8 | z2 G2 B4- | B4 A4 | G6 (A2- | ^F4) (G4 | G4 ^F4) | G8 | %26
w: this, this|* mirth con\- *|tent-|eth,||whom grief|* of|mind tor\-|* ment\-||eth.|
 z8 | z2 d2 d2 g2 | (fedc) B2 _e2- | e2 d2 c4 | d2 Bc d4 | z2 de f4- | f2 ed ^c2 d2 | g3 f e2 (d2 | %34
w: |Ah, cease this|weep\- * * * ing, cease|* this weep-|ing, fool a- las,|fool a- las,|* fool a- las, she|does but this to|
 ^c2) (d4 c2) | d8 | z4 z2 B2 | _eded edcB | A2 B4 A2 | B2 Bc d4 | c4 z2 c2 | c2 B2 A4 | =B4 z4 | %43
w: * prove *|thee:|a-|way, a- way, a- way, a- way, a-|way false com-|fort, no, thou canst|not, thou|canst not move|me,|
 z2 d2 g3 g | f2 d2 _e4 | d2 G2 c3 c | B2 (G3 ABc | d2) (B4 A2) | B4 d4 | c2 B3 B A2 | %50
w: thou canst, thou|canst not move|me, thou canst, thou|canst not * * *|* move *|me. You|that saw too much|
 G2 F2 (GA) B2 | A2 (B4 A2) | B8 | z8 | z2 g4 f2 | _e3 e d3 d | _e2 c3 c (d2 | =B2) (c4 B2) | %58
w: mine eyes, dear\- * ly|shall buy *|it:||you that|saw too much mine|eyes, dear- ly shall|* buy *|
 c2 c2 c2 B2 | A2 d2 c2 f2- | f_e d2 c2 B2 | A2 B2 c4 | d2 d3 d d2 |[M:3/4] f2 f2 f2 | _e3 e c2 | %65
w: it: that made my|heart be- lieve I|* did e- spy it,|did e- spy|it. Hence a- way|com- fort, in|vain thou dost|
 d4 d2 | d2 _e2 f2 |[M:3/4] g6 f2 | _e2 (d3 c c2-) |[M:4/4] (c2 =BA) B4 | c8 | z4 z2 g2 | %72
w: ease me,|com- fort in|vain, thou|seekst to * *|* * * ease|me;|a-|
 _e3 f g4 | c2 g2 _e3 f | g2 d4 d2 | d2 d2 d4 | d2 d2 B3 c | d2 G3 A B2- | BG (c4 B2) | c2 c4 B2 | %80
w: way I say|then, a- way I|say, no thou|canst not please|me, a- way I|say, no thou canst|* not please *|me, no, thou|
 A3 =B ^c2 d2 | g3 f e4 | d8- | d8 | z2 d2 B3 c | d4 G2 d2 | _e2 e2 d4 | c2 g2 _e3 f | g2 g2 c3 d | %89
w: canst not please, thou|canst not please|me,||thou canst not|please me, thou|canst not please|me, a- way I|say, a- way I|
 _e2 f2 g3 f | _e2 d2 c2 =B2 | c2 d2 _e4 | d16 |] %93
w: say, a- way I|say, thou canst, thou|canst not please|me.|
V:3
[K:C] z8 | z8 | z8 | z8 ||[K:F][M:4/4][K:treble] z8 | z4 z2 G2 | (F2 E2) D4 | z2 G2 ^F2 G2 | %8
w: |||||Com-|plain\- * ing,|With sobs and|
 D2 G,G ^F2 G2 | D2 G,G ^F2 G2 | D2 G,G (CD_EF) || G2 G,2 B,2 C2 | D8 | G,8 | G8 | G8 | G4 G4- | %17
w: groan- ings, with sobs and|groan- ings, with sobs and|groan- ings, and groan\- * * *|* ings, my dis-|dain-|ing.|O,|this,|this mirth|
 G2 (^FE) F4 | G4 z2 D2 | F8 | E4 D4- | D4 C4- | C4 C4- | C2 C2 B,4 | A,8 | =B,4 z2 !courtesy!_B2 | %26
w: * con\- * tent-|eth, whom|grief|of mind|* tor\-|* ment\-|* eth, tor-|ment-|eth. Ah,|
 A2 G2 (F_EDC) | B,2 B,C D2 E2 | F4 G4 | A2 (B4 A2) | B4 z2 DE | F4 z2 FG | A2 GF E2 D2- | %33
w: cease this weep\- * * *|ing, cease, a- las, this|weep- ing,|this weep\- *|ing, fool a-|las, fool a-|las, fool a- las, fool,|
 D2 D2 G3 F | E2 D2 E4 | D4 z2 A2 | BABA BAGF | _E2 C4 C2 | C2 F2 F4 | F6 B2 | A4 G2 AG | %41
w: * she does but|this to prove|thee: a-|way, a- way, a- way, a- way false|com- fort, a-|way false com-|fort, thou|canst not, no thou|
 ^F2 G4 F2 | G2 G2 B3 B | A2 F2 G4 | A2 G4 C2 | D2 D2 C4 | D2 B,2 _E3 E | D2 F2 _E4 | F4 B4 | %49
w: canst not move|me, thou canst, thou|canst not move|me, no thou|canst not move|me, thou canst, thou|canst not move|me. You|
 A2 G3 G F2 | _E2 D2 C2 B,2 | F4 F4 | B,2 B4 A2 | G3 A =B3 B | c3 c G4 | z2 G4 G2- | %56
w: that saw too much|mine eyes, dear- ly|shall buy|it: you that|saw too much, too|much mine eyes,|shall dear\-|
 GF _E2 F2 F2- | FF _E2 D4 | !courtesy!=E2 E2 F2 D2 | C2 (F,G,) A,2 B,2 | C2 D2 A,2 F2- | %61
w: * ly buy it, dear\-|* ly shall buy|it: that made my|heart be\- * lieve I|did e- spy I|
 F_E (D2 C2) F2 | F2 G4 G2 |[M:3/4] F3 F B2 | G3 G G2 | ^F4 G2- | G2 z2 D2 |[M:4/4] _E3 F G4- | %68
w: * did e\- * spy|it. Hence then|com- fort, in|vain thou dost|ease me,|* com-|fort in vain,|
 G2 F2 _E4 |[M:4/4] (D2 C2 D4) | C2 G2 _E3 F | G4 C4 | z8 | z8 | z2 G2 D3 E | ^F2 G4 F2 | G8 | %77
w: * thou dost|ease * *|me; a- way I|say then,|||a- way, thou|canst not please|me,|
 z4 z2 G2 | _E3 F G4 | CD_EF G2 G2 | DEFG A2 B2 | G2 G2 A4 | D2 F3 D G2 | ^F2 (G4 F2) | G8 | z8 | %86
w: a-|way I say,|no, no, no thou canst not,|no, no, no, no, no thou|canst not please|me, no, thou canst|not please *|me,||
 z4 z2 G2 | _E3 F G2 G2 | C3 D _E2 F2 | G3 F _E2 D2 | C4 G,4 | G8 | G16 |] %93
w: a-|way I say, a-|way I say, a-|way I say, thou|canst not|please|me.|
V:4
[K:C] z8 | z8 | z8 | z8 ||[M:4/4] z8 | z8 | z8 | z8 |[M:4/4] z8 | z8 | z8 || %11
w: |||||||||||
[K:F][M:4/4][K:treble-8] z8 | z8 | z8 | G8 | C3 D _E2 F2 | G8 | D8 | z2 G2 B4- | B4 A4 | G4 G4 | %21
w: |||O,|this, this mirth con-|tent-|eth,|whom grief|* of|mind tor-|
 F8 | C4 C4 | D8- | D8 | G4 z2 g2 | f2 e2 (dcBA) | G2 GA B2 c2 | d4 _e4 | f8 | B4 z2 Bc | %31
w: ment-|eth, tor-|ment\-||eth. Ah,|cease this weep\- * * *|ing, cease, a- las, a-|las, this|weep-|ing, fool a-|
 d4 z2 DE | F2 G2 A2 B2 | G4 G4 | A8 | D6 d2 | gggf gf_ed | c4 C2 C2 | F8 | B4 B4 | c4 c4 | d8 | %42
w: las, fool a-|las, she does but|this to|prove|thee: a-|way, a- way, a- way, a- way false|com- fort, false|com-|fort, thou|canst not|move|
 G2 G2 g3 g | f2 d2 _e4 | d2 G2 c3 c | B2 G2 A4 | G2 G2 (_EFGA | Bc) d2 c4 | !courtesy!_B8 | z8 | %50
w: me, thou canst, thou|canst not move|me, thou canst, thou|canst not move|me, thou canst * * *|* * not move|me.||
 z8 | z8 | z2 g4 f2 | _e3 e d3 d | c3 c =B2 B2 | c4 G2 G2 | c4 F4 | G8 | C2 c2 A2 B2 | F8 | F8 | %61
w: ||You that|saw too much, too|much mine eyes, shall|dear- ly, shall|dear- ly|buy|it: that made my|heart|e-|
 F8 | B2 G4 G2 |[M:3/4][K:treble-8] d3 d B2 | c3 c _e2 | d4 G2 | G3 G F2 |[M:4/4] _E2 C2 E2 F2 | %68
w: spy|it. Hence false|com- fort, in|vain thou dost|ease me,|com- fort in|vain, thou seest to|
 G8- |[M:4/4][K:treble-8] G8 | C4 z2 g2 | _e3 f g4 | c8 | z4 z2 c2 | G3 A B3 c | d8 | G8 | z8 | %78
w: ease||me; a-|way I say|then,|a-|way, thou canst not|please|me,||
 z8 | z8 | z8 | z8 | z2 d2 B3 c | d8 | G8 | z4 z2 G2 | _E3 F G2 G2 | C8- | C4 C4 | C8- | C8 | C8 | %92
w: ||||thou canst not|please|me,|a-|way, I say thou|canst|* not|please|||
 G16 |] %93
w: me.|

